X:1
T:James Gibb editions
T:Recessit Pastor noster - Lasso
T:#
%%score [ 1 2 3 4 ]
L:1/8
Q:1/4=100
M:4/4
K:C
V:1 treble nm="Soprano" snm="S"
V:2 treble nm="Alto" snm="A"
V:3 treble-8 nm="Tenor" snm="T"
V:4 bass nm="Bass" snm="B"
V:1
"^Recessit Pastor noster""^Orlando di Lasso\n(1532-94)" B8 | c4 d2 c2- | c2 c2 _B4 | A4 A4 | %4
w: Re-|ces- sit Pa\-|* stor no-|ster, fons|
 c2 c2 A4 | B4 e4 | d2 c2 B2 c2 | c2 g4 g2 | d2 (f4 e2- | ed d4) ^c2 | d8 ||S d4 e2 f2- | %12
w: a- quae vi-|vae, ad|cu- jus tran- si-|tus sol ob-|scu- ra\- *|* * * tus|est.|Nam et il\-|
 f2 e2 d2 c2 | B4 c4 | d4 B4 | c2 A2 A4 | e4 (A3 B | c2 A2 (GABc | AB c4 B2) | c2 A4 ^G2 | %20
w: * le ca- ptus|est, qui|ca- pti-|vum te- ne-|bat pri\- *|* mum ho\- * * *|* * * mi-|nem. Ho- di-|
 ^G4 A2 A2 | c4 F4- | F2 f2 e2 f2 | c2 B2 A4 | A4 B2 c2- | cB/A/ B2) e4 | d2 d2 d4 | B8!fine! |] %28
w: e por- tas|mor- tis|* et se- ras|pa- ri- ter|Sal- va- tor|* * * * no-|ster dis- ru-|pit.|
[M:4/4][Q:1/4=95][Q:1/4=95][Q:1/4=95][Q:1/4=95] z8 | z8 | z8 | z8 | z8 | z8 |[M:4/4] z8 | z8 | z8 | %37
w: |||||||||
 z8 | z8 | z8 |] %40
w: |||
V:2
 G8 | G6 G2 | G2 A2 G4 | F2 F2 E4 | A2 (G3 ^F/E/ F2) | G2 G4 G2- | G2 E2 G2 A2 | G4 _B4 | %8
w: Re-|ces- sit|Pa- stor no-|ster, fons a-|quae vi\- * * *|vae, ad cu\-|* jus tran- si-|tus sol|
 _B2 A2 (G4 | F3 E/D/ E2) E2 | ^F8 || G4 G2 A2- | A2 c2 B2 (A2- | A^G/^F/ G2 A4) | F4 G4 | E4 F4 | %16
w: ob- scu- ra\-|* * * * tus|est.|Nam et il\-|* le ca- ptus|* * * * est,|qui ca-|pti- vum|
 G4 F4 | E2 (E3 F G2) | ^F2 G4 G2 | E4 E4 | E2 E2 E2 (F2- | FE/D/ E2) D4 | C2 C2 G2 A2 | %23
w: te- ne-|bat pri\- * *|mum ho- mi-|nem. Ho-|di- e por- tas|* * * * mor-|tis et se- ras|
 A2 G2 E2 E2 | ^F4 G4 | G4 G2 A2- | A2 (G3 ^F/E/ F2) | G8 |][M:4/4] z8 | z8 | z8 | z8 | z8 | z8 | %34
w: pa- ri- ter Sal-|va- tor|no- ster dis\-|* ru\- * * *|pit.|||||||
[M:4/4] z8 | z8 | z8 | z8 | z8 | z8 |] %40
w: ||||||
V:3
 d8 | e4 d2 e2- | e2 f2 d4 | d2 (d3 c/B/ c2) | f2 e2 d4 | d4 c4 | B2 c2 d2 f2 | e4 d4 | g2 c2 (c4 | %9
w: Re-|ces- sit Pa\-|* stor no-|ster, fons * * *|a- quae vi-|vae, ad|cu- jus tran- si-|tus sol|ob- scu- ra\-|
 A4) A4 | A8 || B4 c2 c2- | c2 g2 g2 e2 | e2 e4 f2- | f2 d4 e2- | e2 c4 (d2- | d^c/B/ c2 d2) (A2- | %17
w: * tus|est.|Nam et il\-|* le ca- ptus|est, qui ca\-|* pti- vum|* te- ne\-|* * * * bat pri\-|
 ABcd ec d2- | d2 e2) d3 d | c4 B4 | B2 B2 ^c2 d2 | G4 _B2 B2 | A4 c4 | f2 d2 ^c2 c2 | d6 e2 | %25
w: |* mum ho- mi-|nem. Ho-|di- e por- tas|mor- tis et|se- ras|pa- ri- ter Sal-|va- tor|
 d4 c4- | c2 B2 A4 | G8 |] d4 c2 B2- | B2 (d3 A c2) | (B3 c d4) | z2 (g3 f ed | cBAG A2) F2 | %33
w: no- ster|* dis- ru-|pit.|De- stru- xit|* qui\- * *|dem * *|clau\- * * *|* * * * * stra|
 E2 (G3 ^F/E/ F2) | G4 z2 B2 | c2 d2 e2 A2 | G2 G2 e2 f2 | (c3 d efgf | ed d4 ^c2) | d8 |] %40
w: in- fer\- * * *|ni, et|sub- ver- tit po-|ten- ti- as di-|a\- * * * * *|* * * bo-|li.|
V:4
 G,8 | C4 B,2 C2- | C2 F,2 G,4 | D,4 A,4 | F,2 C,2 D,4 | G,4 C,4 | G,2 A,2 G,2 F,2 | C4 G,4 | %8
w: Re-|ces- sit Pa\-|* stor no-|ster, fons|a- quae vi-|vae, ad|cu- jus tran- si-|tus sol|
 G,2 F,2 (C,4 | D,3 C,/_B,,/ A,,2) A,,2 | D,8 || G,4 C,2 F,2- | F,2 C,2 G,2 A,2 | E,4 A,4 | %14
w: ob- scu- ra\-|* * * * tus|est.|Nam et il\-|* le ca- ptus|est, qui|
 _B,4 G,4 | A,4 F,4 | E,4 D,4 | (A,3 B, C2) G,2 | D,2 C,2 G,4 | (A,4 E,4) | E,2 E,2 A,2 D,2 | %21
w: ca- pti-|vum te-|ne- bat|pri\- * * mum|ho- mi- nem.|Ho\- *|di- e por- tas|
 C,4 _B,,2 B,,2 | F,4 C,2 F,2- | F,2 G,2 A,2 A,2 | D,2 D,2 G,4 | G,4 C,4 | D,8 | G,8 |] z8 | %29
w: mor- tis et|se- ras pa\-|* ri- ter Sal-|va- tor no-|ster dis-|ru-|pit.||
 G,4 F,2 E,2- | E,2 (G,3 D, F,2) | E,4 (C3 B, | A,G,F,E, D,C, D,2) | C,2 B,,2 A,,4 | G,,8 | %35
w: De- stru- xit|* qui\- * *|dem clau\- *||stra in- fer-|ni,|
 z2 B,,2 C,2 D,2 | E,2 D,2 C,2 D,2 | A,2 F,2 (C,D,E,F, | G,3 F, E,2 E,2) | D,8 |] %40
w: et sub- ver-|tit po- ten- ti-|as di- a\- * * *|* * * bo-|li.|

